X: 22641
T: Laird O'Brodie, The
R: strathspey
M: 4/4
K: Dmajor
F||D>E F<F D4|D>F A<F E2 DB,|D>E F<F D>E F<d|A<F F>D E2 D<B,|
D>E F<F D3F|d2 d>A B2 (AB/c/)|d>ef>A Bc/d/ e/d/c/B/|A<F F>A E2 D<B,:|
d>c d<f B>c d<e|d2 d>A B2 (AB/c/)|d>ef>A Bc/d/ e/d/c/B/|A<F F>DE2 D<B,|
d>c d<f B>c d<e|d2 d>A B3g|f>ed>c Bc/d/ e/d/c/B/|A<F F>A E2 D<B,:|

